X: 36948
T: Shovel Tongue
R: waltz
M: 3/4
K: Amajor
E2 A2 B2|:c2cB Ae|cB Aa ec|M:2/4
fe cA|
M:3/4
B2 BA Bf|fe fa ef|M:2/4
cB Bd|
M:3/4
c2cB Ae|cB Aa ec|M:2/4
fe ce|
M:3/4
a2 ga ef|af ec Bc|M:2/4
[1 A2 B2:|2 Ae fg||
M:3/4
|:a2ag ae|cB Aa ec|M:2/4
fe cA|
M:3/4
B=g gB aB|=gB Bg =cg|M:2/4
d=g e^g|
M:3/4
a2ag ae|cB Aa ec|M:2/4
fe ce|
M:3/4
a2 ga ef|af ec Bc|M:2/4
[1 Ae fg:|2 A2 B2||

